X: 122222
T: LaFlora Hornpipe
S: Colclough Collection
L: 1/16
M: 2/4
R: hornpipe
Q: 1/4=75
K: G
Bc |dBcA Ggfe |eddd d2cB |Aced cBAG |AGFE D2Bc |
dBcA Ggff |eddd dgec |dBcA BGAF |G2B2G2 :|
cB |BAAA A2Bc |eddd dgec |BAAA A2Bc |eddd d2ba |
gbfa egdf |ceBd AcGB |A2A2 AGAB |G2B2G2 :|
